static/characters/naitoapple/back-walking-1.svg

<svg xmlns="http://www.w3.org/2000/svg" xmlns:xlink="http://www.w3.org/1999/xlink" height="186" width="160"><defs><use height="2.2" width="5" xlink:href="#a" id="e"/><use height="15.95" width="16" xlink:href="#b" id="f"/><g id="d"><path d="M-15.55-41.55q-2.65-3.1-2.5-7.1-.15-5.3 5.35-9.8Q-7.2-63.5.45-64q7.6.5 13.05 5.55 5.45 4.5 5.45 9.8 0 4-2.6 7.1h.1-.05l-1 1.2-1.25-.3-.7.75 8.5 3.05.05-.1.8.1h.95l.4.3.55.55.25.35.25 1.5-.2.45q-.35 1.55-1.4 1.65l-2.1.1q-.45-.3-1.15-.9v-.05h-.05l.05-.15-6.05-2.2-.45 1.3h.05l-1.3 10.5h.05l-.05.4v.05h-.05l-.25 3.1H10l-.75 1.55h5.4q.7 0 1.15.4.55.55.55 1.65 0 1.05-.55 1.6-.45.45-1.15.45h-3.5v-.45l-.15.45H8.05v1.45l-7.2-.7v-.05H-1.6l-1.55 1.7v1.2h-1.2v5.2q-.05 1.35-.8 2.25-.7.75-1.7.75T-8.6-3.2q-.75-.9-.75-2.25v-5.2h-1.2l-1.6-2.35.1-.1q-1.8-1.9-2.15-4.15l-.1-1.2.05-.95.55-1.85h.1v-.55l.15-.15v-1.35h-.05l-.05-.8v-2.05l-.2-.65-.15-.45.15-.4.25-.5.25-.75h.1l.35-4.75.1-1.6-.9.35v.05l-4.95 1.8.05.15h-.05v.05l-1.1.9-2.1-.1q-1.1-.1-1.45-1.65l-.15-.45.25-1.5.2-.35.6-.55.35-.3h1l.75-.1.05.1 6.2-2.2-.7-1.05-1.1-1.45h.2m2.85 6.3l.05-.3-.05.3M-13.85-22l.05.1-.05-.1m3.7-6.5v.05h.05l-.05-.05" fill="#fff" fill-rule="evenodd" transform="translate(24.8 64.6)"/><path d="M-14.65-40.1l.7 1.05-6.2 2.2-.05-.1-.75.1h-1l-.35.3-.6.55-.2.35-.25 1.5.15.45q.35 1.55 1.45 1.65l2.1.1 1.1-.9v-.05h.05l-.05-.15 4.95-1.8v-.05l.9-.35-.1 1.6-1 .4v-.1l-4.15 1.5-1.6 1.25-2.7-.2q-.3.35-.2-.1-1.7-.5-2-2.4l-.15-.2q-.35-.7-.15-1.6l.25-.7.15-.3v-.25l.1-.25q.45-1.15 2.05-1.5.05.15.3 0l1.2.1h.1v-.1l.3-.2.05.05 2.55-.95v.05l3.05-.95m4.1 29.45h1.2v5.2q0 1.35.75 2.25.75.75 1.75.75t1.7-.75q.75-.9.8-2.25v-5.2h1.15v5.2q0 1.95-1.05 3.1-1.1 1.25-2.6 1.25T-9.5-2.35q-1.05-1.15-1.05-3.1v-5.2m18.6-2.15v-1.45h6.6q.7 0 1.15-.45.55-.55.55-1.6 0-1.1-.55-1.65-.45-.4-1.15-.4h-5.4L10-19.9h4.7q1.25 0 2.05.8.9.9.9 2.8 0 1.85-.9 2.75-.8.8-2.05.8H8.05v-.05m5.85-21.15h-.05l.45-1.3 6.05 2.2-.05.15h.05v.05q.7.6 1.15.9l2.1-.1q1.05-.1 1.4-1.65l.2-.45-.25-1.5-.25-.35-.55-.55-.4-.3h-.95l-.8-.1-.05.1-8.5-3.05.7-.75 1.25.3 4.15 1.2v-.05l2.55.95v-.05l.3.2v.1h.1l1.25-.1q.2.15.3 0 1.55.35 2 1.5l.15.25v.25l.15.3.2.7q.2.9-.15 1.6l-.1.2q-.35 1.9-2 2.4.05.45-.2.1l-2.7.2-1.65-1.25-5.85-2.1" fill-rule="evenodd" transform="translate(24.8 64.6)"/><path d="M41.15 23.05q2.6-3.1 2.6-7.1 0-5.3-5.45-9.8Q32.85 1.1 25.25.6q-7.65.5-13.15 5.55-5.5 4.5-5.35 9.8-.15 4 2.5 7.1" fill="none" stroke="#000" stroke-linecap="round" stroke-linejoin="round" stroke-width="1.2"/></g><g id="b"><path d="M8.7-1.95q0 2.65-2.2 4.6-2.2 1.9-5.3 1.9-3.05 0-5.3-1.9Q-6.3.7-6.3-1.95q0-2.7 2.2-4.65 2.25-1.9 5.3-1.9 3.1 0 5.3 1.9 2.2 1.95 2.2 4.65" fill="url(#c)" fill-rule="evenodd" transform="translate(6.8 10.9)"/><path d="M8.7-1.95q0 2.65-2.2 4.6-2.2 1.9-5.3 1.9-3.05 0-5.3-1.9Q-6.3.7-6.3-1.95q0-2.7 2.2-4.65 2.25-1.9 5.3-1.9 3.1 0 5.3 1.9 2.2 1.95 2.2 4.65z" fill="none" stroke="#000" stroke-linecap="round" stroke-linejoin="round" transform="translate(6.8 10.9)"/><path d="M2.35-7.5q.1.35-.65.7-.7.4-1.8.65l-1.95.2q-.85 0-.95-.35-.1-.3.65-.75l1.85-.6 1.9-.25q.85.1.95.4" fill-opacity=".2" fill-rule="evenodd" transform="translate(6.8 10.9)"/><path d="M-4-10.4l1.95.15 1.35 3.2L-4-10.4" fill-rule="evenodd" transform="translate(6.8 10.9)"/><path d="M-4-10.4l1.95.15 1.35 3.2z" fill="none" stroke="#000" stroke-linecap="round" stroke-linejoin="round" transform="translate(6.8 10.9)"/><path d="M-1 1.9q.2.4.05.55l-.8-.05-1-.65-.8-.85q-.15-.5.1-.6l.7.05q.5.2 1.05.7l.7.85m-3.4-3.1l-.2-.7.2-.75.5-.3q.3 0 .5.3l.25.75q0 .4-.25.7-.2.3-.5.3l-.5-.3" fill="#fff" fill-rule="evenodd" transform="translate(6.8 10.9)"/></g><linearGradient gradientTransform="matrix(-.0007 -.008 .0091 -.0006 1.2 -1.35)" gradientUnits="userSpaceOnUse" id="c" spreadMethod="pad" x1="-819.2" x2="819.2"><stop offset="0" stop-color="#c7f466"/><stop offset=".365" stop-color="#e7ac43"/><stop offset=".576" stop-color="#f84f32"/><stop offset="1" stop-color="#ff3131"/></linearGradient><path d="M.7-.3l1.85 2.2H1.5L.05.7-1.4 1.9h-1.05l1.9-2.2H.7" fill-rule="evenodd" transform="translate(2.45 .3)" id="a"/></defs><g transform="matrix(2 0 0 2 82.741 148.2)"><use height="63.5" transform="translate(-24.8 -64.6)" width="51.4" xlink:href="#d"/><use height="2.2" transform="translate(10.3 -53.3)" width="5" xlink:href="#e"/><use height="15.95" transform="translate(-6 -72.95)" width="16" xlink:href="#f"/></g></svg>

<?xml version="1.0" encoding="UTF-8" standalone="no"?>
<svg
   xmlns:dc="http://purl.org/dc/elements/1.1/"
   xmlns:cc="http://creativecommons.org/ns#"
   xmlns:rdf="http://www.w3.org/1999/02/22-rdf-syntax-ns#"
   xmlns:svg="http://www.w3.org/2000/svg"
   xmlns="http://www.w3.org/2000/svg"
   xmlns:xlink="http://www.w3.org/1999/xlink"
   xmlns:sodipodi="http://sodipodi.sourceforge.net/DTD/sodipodi-0.dtd"
   xmlns:inkscape="http://www.inkscape.org/namespaces/inkscape"
   height="182"
   width="160"
   version="1.1"
   id="svg19"
   sodipodi:docname="back-walking-1.svg"
   inkscape:version="1.0.1 (3bc2e813f5, 2020-09-07, custom)">
  <metadata
     id="metadata23">
    <rdf:RDF>
      <cc:Work
         rdf:about="">
        <dc:format>image/svg+xml</dc:format>
        <dc:type
           rdf:resource="http://purl.org/dc/dcmitype/StillImage" />
      </cc:Work>
    </rdf:RDF>
  </metadata>
  <sodipodi:namedview
     pagecolor="#ffffff"
     bordercolor="#666666"
     borderopacity="1"
     objecttolerance="10"
     gridtolerance="10"
     guidetolerance="10"
     inkscape:pageopacity="0"
     inkscape:pageshadow="2"
     inkscape:window-width="1920"
     inkscape:window-height="1060"
     id="namedview21"
     showgrid="false"
     inkscape:zoom="4.7826349"
     inkscape:cx="80"
     inkscape:cy="91"
     inkscape:window-x="1920"
     inkscape:window-y="20"
     inkscape:window-maximized="0"
     inkscape:current-layer="svg19" />
  <defs
     id="defs11">
    <g
       id="shape0"
       transform="matrix(1.0, 0.0, 0.0, 1.0, 24.8, 64.6)">
      <path
         d="M-15.55 -41.55 Q-18.2 -44.65 -18.05 -48.65 -18.2 -53.95 -12.7 -58.45 -7.2 -63.5 0.45 -64.0 8.05 -63.5 13.5 -58.45 18.95 -53.95 18.95 -48.65 18.95 -44.65 16.35 -41.55 L16.45 -41.55 16.4 -41.55 15.4 -40.35 14.15 -40.65 13.45 -39.9 21.95 -36.85 22.0 -36.95 22.8 -36.85 23.35 -36.85 23.75 -36.85 24.15 -36.55 24.7 -36.0 24.95 -35.65 25.2 -34.15 25.0 -33.7 Q24.65 -32.15 23.6 -32.05 L21.5 -31.95 Q21.05 -32.25 20.35 -32.85 L20.35 -32.9 20.3 -32.9 20.35 -33.05 14.3 -35.25 13.85 -33.95 13.9 -33.95 12.6 -23.45 12.65 -23.45 12.6 -23.05 12.6 -23.0 12.55 -23.0 12.3 -19.9 10.0 -19.9 9.25 -18.35 14.65 -18.35 Q15.35 -18.35 15.8 -17.95 16.35 -17.4 16.35 -16.3 16.35 -15.25 15.8 -14.7 15.35 -14.25 14.65 -14.25 L11.15 -14.25 11.15 -14.7 11.0 -14.25 8.05 -14.25 8.05 -12.8 0.85 -13.5 0.85 -13.55 -1.6 -13.55 -3.15 -11.85 -3.15 -10.65 -3.2 -10.65 -4.35 -10.65 -4.35 -5.45 Q-4.4 -4.1 -5.15 -3.2 -5.85 -2.45 -6.85 -2.45 -7.85 -2.45 -8.6 -3.2 -9.35 -4.1 -9.35 -5.45 L-9.35 -10.65 -10.55 -10.65 -12.15 -13.0 -12.05 -13.1 Q-13.85 -15.0 -14.2 -17.25 L-14.3 -18.45 -14.25 -19.4 -13.7 -21.25 -13.6 -21.25 -13.6 -21.8 -13.45 -21.95 -13.45 -22.0 -13.45 -23.3 -13.5 -23.3 -13.55 -24.1 -13.55 -26.15 -13.75 -26.8 -13.9 -27.25 -13.75 -27.65 -13.5 -28.15 -13.25 -28.9 -13.15 -28.9 -12.8 -33.65 -12.7 -35.25 -13.6 -34.9 -13.6 -34.85 -18.55 -33.05 -18.5 -32.9 -18.55 -32.9 -18.55 -32.85 -19.65 -31.95 -21.75 -32.05 Q-22.85 -32.15 -23.2 -33.7 L-23.35 -34.15 -23.1 -35.65 -22.9 -36.0 -22.3 -36.55 -21.95 -36.85 -21.5 -36.85 -20.95 -36.85 -20.2 -36.95 -20.15 -36.85 -13.95 -39.05 -14.65 -40.1 -15.75 -41.55 -15.55 -41.55 M-12.7 -35.25 L-12.65 -35.55 -12.7 -35.25 M-13.85 -22.0 L-13.8 -21.9 -13.85 -22.0 M-10.15 -28.5 L-10.15 -28.45 -10.1 -28.45 -10.15 -28.5"
         fill="#ffffff"
         fill-rule="evenodd"
         stroke="none"
         id="path856" />
      <path
         d="M-14.65 -40.1 L-13.95 -39.05 -20.15 -36.85 -20.2 -36.95 -20.95 -36.85 -21.5 -36.85 -21.95 -36.85 -22.3 -36.55 -22.9 -36.0 -23.1 -35.65 -23.35 -34.15 -23.2 -33.7 Q-22.85 -32.15 -21.75 -32.05 L-19.65 -31.95 -18.55 -32.85 -18.55 -32.9 -18.5 -32.9 -18.55 -33.05 -13.6 -34.85 -13.6 -34.9 -12.7 -35.25 -12.8 -33.65 -13.8 -33.25 -13.8 -33.35 -17.95 -31.85 -19.55 -30.6 -22.25 -30.8 Q-22.55 -30.45 -22.45 -30.9 -24.15 -31.4 -24.45 -33.3 L-24.6 -33.5 Q-24.95 -34.2 -24.75 -35.1 L-24.5 -35.8 -24.35 -36.1 -24.35 -36.35 -24.25 -36.6 Q-23.8 -37.75 -22.2 -38.1 -22.15 -37.95 -21.9 -38.1 L-20.7 -38.0 -20.6 -38.0 -20.6 -38.1 -20.3 -38.3 -20.25 -38.25 -17.7 -39.2 -17.7 -39.15 -14.65 -40.1 M-10.55 -10.65 L-9.35 -10.65 -9.35 -5.45 Q-9.35 -4.1 -8.6 -3.2 -7.85 -2.45 -6.85 -2.45 -5.85 -2.45 -5.15 -3.2 -4.4 -4.1 -4.35 -5.45 L-4.35 -10.65 -3.2 -10.65 -3.2 -5.45 Q-3.2 -3.5 -4.25 -2.35 -5.35 -1.1 -6.85 -1.1 -8.35 -1.1 -9.5 -2.35 -10.55 -3.5 -10.55 -5.45 L-10.55 -10.65 M8.05 -12.8 L8.05 -14.25 11.0 -14.25 11.15 -14.25 14.65 -14.25 Q15.35 -14.25 15.8 -14.7 16.35 -15.25 16.35 -16.3 16.35 -17.4 15.8 -17.95 15.35 -18.35 14.65 -18.35 L9.25 -18.35 10.0 -19.9 12.3 -19.9 14.7 -19.9 Q15.95 -19.9 16.75 -19.1 17.65 -18.2 17.65 -16.3 17.65 -14.45 16.75 -13.55 15.95 -12.75 14.7 -12.75 L8.05 -12.75 8.05 -12.8 M13.9 -33.95 L13.85 -33.95 14.3 -35.25 20.35 -33.05 20.3 -32.9 20.35 -32.9 20.35 -32.85 Q21.05 -32.25 21.5 -31.95 L23.6 -32.05 Q24.65 -32.15 25.0 -33.7 L25.2 -34.15 24.95 -35.65 24.7 -36.0 24.15 -36.55 23.75 -36.85 23.35 -36.85 22.8 -36.85 22.0 -36.95 21.95 -36.85 13.45 -39.9 14.15 -40.65 15.4 -40.35 19.55 -39.15 19.55 -39.2 22.1 -38.25 22.1 -38.3 22.4 -38.1 22.4 -38.0 22.5 -38.0 23.75 -38.1 Q23.95 -37.95 24.05 -38.1 25.6 -37.75 26.05 -36.6 L26.2 -36.35 26.2 -36.1 26.35 -35.8 26.55 -35.1 Q26.75 -34.2 26.4 -33.5 L26.3 -33.3 Q25.95 -31.4 24.3 -30.9 24.35 -30.45 24.1 -30.8 L21.4 -30.6 19.75 -31.85 13.9 -33.95"
         fill="#000000"
         fill-rule="evenodd"
         stroke="none"
         id="path858" />
      <path
         d="M16.35 -41.55 Q18.95 -44.65 18.95 -48.65 18.95 -53.95 13.5 -58.45 8.05 -63.5 0.45 -64.0 -7.2 -63.5 -12.7 -58.45 -18.2 -53.95 -18.05 -48.65 -18.2 -44.65 -15.55 -41.55"
         fill="none"
         stroke="#000000"
         stroke-linecap="round"
         stroke-linejoin="round"
         stroke-width="1.2000000000000002"
         id="path860" />
    </g>
    <g
       id="sprite0"
       transform="matrix(1.0, 0.0, 0.0, 1.0, 2.45, 0.3)">
      <use
         height="2.2"
         transform="matrix(1.0, 0.0, 0.0, 1.0, -2.45, -0.3)"
         width="5.0"
         xlink:href="#shape1"
         id="use863" />
    </g>
    <g
       id="shape1"
       transform="matrix(1.0, 0.0, 0.0, 1.0, 2.45, 0.3)">
      <path
         d="M0.7 -0.3 L2.55 1.9 1.5 1.9 0.05 0.7 -1.4 1.9 -2.45 1.9 -0.55 -0.3 0.7 -0.3"
         fill="#000000"
         fill-rule="evenodd"
         stroke="none"
         id="path866" />
    </g>
    <g
       id="sprite1"
       transform="matrix(1.0, 0.0, 0.0, 1.0, 6.8, 10.9)">
      <use
         height="15.95"
         transform="matrix(1.0, 0.0, 0.0, 1.0, -6.8, -10.9)"
         width="16.0"
         xlink:href="#shape2"
         id="use869" />
    </g>
    <g
       id="shape2"
       transform="matrix(1.0, 0.0, 0.0, 1.0, 6.8, 10.9)">
      <path
         d="M8.7 -1.95 Q8.7 0.7 6.5 2.65 4.3 4.55 1.2 4.55 -1.85 4.55 -4.1 2.65 -6.3 0.7 -6.3 -1.95 -6.3 -4.65 -4.1 -6.6 -1.85 -8.5 1.2 -8.5 4.3 -8.5 6.5 -6.6 8.7 -4.65 8.7 -1.95"
         fill="url(#gradient0)"
         fill-rule="evenodd"
         stroke="none"
         id="path872" />
      <path
         d="M8.7 -1.95 Q8.7 0.7 6.5 2.65 4.3 4.55 1.2 4.55 -1.85 4.55 -4.1 2.65 -6.3 0.7 -6.3 -1.95 -6.3 -4.65 -4.1 -6.6 -1.85 -8.5 1.2 -8.5 4.3 -8.5 6.5 -6.6 8.7 -4.65 8.7 -1.95 Z"
         fill="none"
         stroke="#000000"
         stroke-linecap="round"
         stroke-linejoin="round"
         stroke-width="1.0"
         id="path874" />
      <path
         d="M2.35 -7.5 Q2.45 -7.15 1.7 -6.8 1.0 -6.4 -0.1 -6.15 L-2.05 -5.95 Q-2.9 -5.95 -3.0 -6.3 -3.1 -6.6 -2.35 -7.05 L-0.5 -7.65 1.4 -7.9 Q2.25 -7.8 2.35 -7.5"
         fill="#000000"
         fill-opacity="0.2"
         fill-rule="evenodd"
         stroke="none"
         id="path876" />
      <path
         d="M-4.0 -10.4 L-2.05 -10.25 -0.7 -7.05 -4.0 -10.4"
         fill="#000000"
         fill-rule="evenodd"
         stroke="none"
         id="path878" />
      <path
         d="M-4.0 -10.4 L-2.05 -10.25 -0.7 -7.05 -4.0 -10.4 Z"
         fill="none"
         stroke="#000000"
         stroke-linecap="round"
         stroke-linejoin="round"
         stroke-width="1.0"
         id="path880" />
      <path
         d="M-1.0 1.9 Q-0.8 2.3 -0.95 2.45 L-1.75 2.4 -2.75 1.75 -3.55 0.9 Q-3.7 0.4 -3.45 0.3 L-2.75 0.35 Q-2.25 0.55 -1.7 1.05 L-1.0 1.9"
         fill="#ffffff"
         fill-rule="evenodd"
         stroke="none"
         id="path882" />
      <path
         d="M-4.4 -1.2 L-4.6 -1.9 -4.4 -2.65 -3.9 -2.95 Q-3.6 -2.95 -3.4 -2.65 L-3.15 -1.9 Q-3.15 -1.5 -3.4 -1.2 -3.6 -0.9 -3.9 -0.9 L-4.4 -1.2"
         fill="#ffffff"
         fill-rule="evenodd"
         stroke="none"
         id="path884" />
    </g>
    <linearGradient
       gradientTransform="matrix(-7.0E-4, -0.008, 0.0091, -6.0E-4, 1.2, -1.35)"
       gradientUnits="userSpaceOnUse"
       id="gradient0"
       spreadMethod="pad"
       x1="-819.2"
       x2="819.2">
      <stop
         offset="0.0"
         stop-color="#c7f466"
         id="stop887" />
      <stop
         offset="0.36470588235294116"
         stop-color="#e7ac43"
         id="stop889" />
      <stop
         offset="0.5764705882352941"
         stop-color="#f84f32"
         id="stop891" />
      <stop
         offset="1.0"
         stop-color="#ff3131"
         id="stop893" />
    </linearGradient>
  </defs>
  <g
     transform="matrix(2,0,0,2,82.741,144.2)"
     id="g854">
    <use
       height="63.5"
       transform="translate(-24.8,-64.6)"
       width="51.400002"
       xlink:href="#shape0"
       id="use848"
       x="0"
       y="0" />
    <use
       height="2.2"
       transform="translate(10.3,-53.3)"
       width="5"
       xlink:href="#sprite0"
       id="use850"
       x="0"
       y="0" />
    <use
       height="15.95"
       transform="translate(-6,-72.95)"
       width="16"
       xlink:href="#sprite1"
       id="use852"
       x="0"
       y="0" />
  </g>
</svg>
